dist/media/images/night-switcher.svg

<svg xmlns="http://www.w3.org/2000/svg" width="50" height="50" viewBox="0 0 50 50" fill="none">
<path d="M13.4842 5.60455C16.0168 6.20635 17.8222 5.12812 19.3267 3.2224C19.8282 2.57045 20.4802 2.01879 21.1071 1.46714C23.3388 -0.513807 26.6738 -0.488732 28.8804 1.54236C30.0339 2.6206 31.087 3.82421 32.2906 4.87737C32.742 5.27857 33.419 5.5544 34.0208 5.60455C35.6006 5.70485 37.2054 5.62962 38.7851 5.6547C41.7691 5.70485 44.1763 8.11207 44.2264 11.096C44.2515 12.7259 44.1763 14.3558 44.2766 15.9857C44.3017 16.5123 44.5524 17.1141 44.9035 17.5153C45.9315 18.6687 47.085 19.6968 48.1632 20.8252C50.5705 23.3327 50.5705 26.4671 48.2134 28.9997C48.1632 29.0499 48.1131 29.1251 48.0379 29.1753C44.753 31.432 43.8252 34.5414 44.2014 38.4531C44.5023 41.7881 41.8443 44.4461 38.5093 44.1201C34.5975 43.744 31.7139 44.8974 29.1813 47.9315C26.8242 50.74 23.4641 50.5644 20.8062 47.9817C20.0038 47.2043 19.1512 46.4521 18.424 45.5745C17.5213 44.4962 16.4932 43.9947 15.0389 44.1452C13.9105 44.2705 12.7821 44.1702 11.6537 44.1702C8.06795 44.1452 5.76103 41.8633 5.73596 38.3026C5.73596 37.0489 5.66073 35.7951 5.76103 34.5414C5.86133 33.3377 5.43506 32.4852 4.55742 31.7079C3.65471 30.9055 2.82723 30.0027 1.97467 29.1502C-0.658225 26.4671 -0.658225 23.3327 1.97467 20.6246C2.90246 19.6718 3.83024 18.6938 4.83325 17.7911C5.51028 17.1893 5.81118 16.5123 5.76103 15.6096C5.68581 14.1552 5.73596 12.6758 5.76103 11.2214C5.71088 8.03685 8.09303 5.6547 11.2274 5.60455C11.9797 5.57947 12.7319 5.60455 13.4842 5.60455ZM25.0439 12.0238C17.4962 12.2244 12.3558 17.4401 12.3057 24.9375C12.2555 34.3408 21.1071 39.5564 29.3317 36.7731C30.1592 36.4972 30.736 36.0459 30.7861 35.1181C30.8112 34.1903 30.1843 33.7891 29.4822 33.3378C27.9275 32.3347 26.2224 31.3819 24.9937 30.0529C22.2355 27.0689 22.2605 22.6557 25.0188 19.6968C26.2726 18.3678 27.9777 17.4401 29.5323 16.437C30.2595 15.9606 31.0118 15.5093 30.736 14.6316C30.5604 14.0298 29.9586 13.2776 29.3819 13.077C28.0028 12.5504 26.4982 12.3498 25.0439 12.0238Z" fill="var(--primary)"/>
</svg>

<svg xmlns="http://www.w3.org/2000/svg" width="50" height="50" fill="none"><path d="M13.484 5.605c2.533.601 4.338-.477 5.843-2.383.501-.652 1.153-1.203 1.78-1.755a5.773 5.773 0 017.773.075c1.154 1.079 2.207 2.282 3.41 3.335.452.402 1.129.677 1.73.728 1.58.1 3.185.025 4.765.05a5.535 5.535 0 015.441 5.441c.026 1.63-.05 3.26.05 4.89.026.526.276 1.128.627 1.53 1.029 1.153 2.182 2.18 3.26 3.31 2.408 2.507 2.408 5.641.05 8.174-.05.05-.1.125-.175.175-3.285 2.257-4.213 5.366-3.837 9.278.301 3.335-2.357 5.993-5.692 5.667-3.912-.376-6.795.777-9.328 3.812-2.357 2.808-5.717 2.632-8.375.05-.802-.778-1.655-1.53-2.382-2.407-.903-1.079-1.93-1.58-3.385-1.43-1.128.125-2.257.025-3.385.025-3.586-.025-5.893-2.307-5.918-5.867 0-1.254-.075-2.508.025-3.762.1-1.203-.326-2.056-1.204-2.833-.902-.802-1.73-1.705-2.582-2.558-2.633-2.683-2.633-5.817 0-8.525.927-.953 1.855-1.931 2.858-2.834.677-.602.978-1.279.928-2.181-.075-1.455-.025-2.934 0-4.389-.05-3.184 2.332-5.566 5.466-5.616.753-.026 1.505 0 2.257 0zm11.56 6.419c-7.548.2-12.688 5.416-12.738 12.914-.05 9.403 8.801 14.618 17.026 11.835.827-.276 1.404-.727 1.454-1.655.025-.928-.602-1.329-1.304-1.78-1.555-1.003-3.26-1.956-4.488-3.285-2.759-2.984-2.733-7.397.025-10.356 1.254-1.33 2.959-2.257 4.513-3.26.727-.476 1.48-.928 1.204-1.805-.176-.602-.777-1.354-1.354-1.555-1.38-.527-2.884-.727-4.338-1.053z" fill="var(--primary)"/></svg>
